modules/paypal/images/icon.svg

<svg id="Layer_1" enable-background="new 0 0 48 24" viewBox="0 0 48 24" xmlns="http://www.w3.org/2000/svg"><path id="path3013_3_" d="m47.5 5.1c-.4-.8-1-1.4-1.8-1.9-.8-.5-1.7-.8-2.7-1-1.1-.2-2.3-.3-3.8-.3h-6.7c-.7 0-1.4.5-1.6 1.2l-4.5 19.6c-.2.6.3 1.2 1 1.2h3.2c.7 0 1.4-.5 1.5-1.2l1.1-4.7c.2-.6.8-1.2 1.5-1.2h.9c3.9 0 6.9-.8 9.2-2.4 2.1-1.7 3.2-3.8 3.2-6.4 0-1.2-.1-2.1-.5-2.9m-6.9 6.4c-1 .7-2.3 1.1-4 1.1h-.8c-.7 0-1.1-.5-1-1.2l1-4.1c.1-.7.8-1.3 1.4-1.3h1c1.2 0 2.2.2 2.8.6.6.4 1 1 1 1.9 0 1.3-.5 2.3-1.4 3" fill="#939393"/><path id="path3013_2_" d="m45.9 4c-.4-.8-1-1.4-1.8-1.9-.8-.5-1.7-.8-2.7-1-1.1-.2-2.3-.3-3.8-.3h-6.6c-.7 0-1.4.5-1.6 1.2l-4.5 19.6c-.2.6.3 1.2 1 1.2h3.1c.7 0 1.4-.5 1.5-1.2l1.1-4.7c.2-.6.8-1.2 1.5-1.2h.9c3.9 0 6.9-.8 9.2-2.4 2.2-1.6 3.3-3.7 3.3-6.4 0-1.1-.1-2.1-.6-2.9m-6.8 6.5c-1 .7-2.3 1.1-4 1.1h-.8c-.7 0-1.1-.5-1-1.2l1-4.1c.2-.6.9-1.2 1.5-1.2h1c1.2 0 2.2.2 2.8.6.6.4.9 1 .9 1.9 0 1.1-.5 2.2-1.4 2.9" fill="#fff"/><path id="path3013_1_" d="m45.1 3.2c-.4-.8-1-1.4-1.8-1.9-.8-.5-1.7-.8-2.7-1-1.1-.2-2.3-.3-3.8-.3h-6.7c-.7 0-1.4.5-1.6 1.2l-4.5 19.6c-.2.6.3 1.2 1 1.2h3.2c.7 0 1.4-.5 1.5-1.2l1.1-4.7c.2-.6.8-1.2 1.5-1.2h.9c3.9 0 6.9-.8 9.2-2.4 2.2-1.6 3.3-3.7 3.3-6.4 0-1.1-.2-2.1-.6-2.9m-6.9 6.4c-1 .7-2.3 1.1-4 1.1h-.8c-.7 0-1.1-.5-1-1.2l1-4.1c.2-.6.9-1.2 1.5-1.2h1c1.2 0 2.2.2 2.8.6.6.4.9 1 .9 1.9.1 1.2-.4 2.2-1.4 2.9" fill="#1c3664"/><path id="path3013_6_" d="m23.5 5.1c-.4-.8-1-1.4-1.8-1.9-.8-.5-1.7-.8-2.7-1s-2.3-.3-3.8-.3h-6.7c-.7 0-1.4.5-1.6 1.2l-4.5 19.6c-.2.6.3 1.2 1 1.2h3.2c.7 0 1.4-.5 1.5-1.2l1-4.7c.2-.6.8-1.2 1.5-1.2h.9c3.9 0 6.9-.8 9.2-2.4 2.2-1.7 3.3-3.8 3.3-6.4 0-1.2-.1-2.1-.5-2.9m-6.9 6.4c-1 .7-2.3 1.1-4 1.1h-.8c-.7 0-1.1-.5-1-1.2l1-4.1c.1-.7.8-1.3 1.4-1.3h1c1.2 0 2.2.2 2.8.6.6.4 1 1 1 1.9 0 1.3-.5 2.3-1.4 3" fill="#939393"/><path id="path3013_5_" d="m21.9 4c-.4-.8-1-1.4-1.8-1.9-.8-.5-1.7-.8-2.7-1s-2.3-.3-3.8-.3h-6.6c-.7 0-1.4.5-1.6 1.2l-4.5 19.7c-.2.6.3 1.2 1 1.2h3.1c.7 0 1.4-.5 1.5-1.2l1.1-4.7c.2-.6.8-1.2 1.5-1.2h.9c3.9 0 6.9-.8 9.2-2.4 2.2-1.6 3.3-3.7 3.3-6.4 0-1.2-.1-2.2-.6-3m-6.8 6.5c-1 .7-2.3 1.1-4 1.1h-.8c-.7 0-1.1-.5-1-1.2l1-4.1c.2-.6.9-1.2 1.5-1.2h1c1.2 0 2.2.2 2.8.6.6.4.9 1 .9 1.9 0 1.1-.5 2.2-1.4 2.9" fill="#fff"/><path id="path3013_4_" d="m21.1 3.2c-.4-.8-1-1.4-1.8-1.9-.8-.5-1.7-.8-2.7-1s-2.3-.2-3.8-.3h-6.7c-.7 0-1.4.5-1.5 1.2l-4.6 19.6c-.2.6.3 1.2 1 1.2h3.2c.7 0 1.4-.5 1.5-1.2l1.1-4.7c.2-.6.8-1.2 1.5-1.2h.9c3.9 0 6.9-.8 9.2-2.4 2.2-1.6 3.3-3.7 3.3-6.4 0-1.1-.2-2.1-.6-2.9m-6.9 6.4c-1 .7-2.3 1.1-4 1.1h-.8c-.7 0-1.1-.5-1-1.2l1-4.1c.2-.6.9-1.2 1.5-1.2h1c1.2 0 2.2.2 2.8.6.6.4.9 1 .9 1.9.1 1.2-.4 2.2-1.4 2.9" fill="#5a5a5a"/></svg>

<?xml version="1.0" encoding="utf-8"?>
<!-- Generator: Adobe Illustrator 17.1.0, SVG Export Plug-In . SVG Version: 6.00 Build 0)  -->
<!DOCTYPE svg PUBLIC "-//W3C//DTD SVG 1.1//EN" "http://www.w3.org/Graphics/SVG/1.1/DTD/svg11.dtd">
<svg version="1.1" id="Layer_1" xmlns="http://www.w3.org/2000/svg" xmlns:xlink="http://www.w3.org/1999/xlink" x="0px" y="0px"
	 viewBox="0 0 48 24" enable-background="new 0 0 48 24" xml:space="preserve">
<g>
	<path id="path3013_3_" fill="#939393" d="M47.5,5.1c-0.4-0.8-1-1.4-1.8-1.9c-0.8-0.5-1.7-0.8-2.7-1c-1.1-0.2-2.3-0.3-3.8-0.3h-6.7
		c-0.7,0-1.4,0.5-1.6,1.2l-4.5,19.6c-0.2,0.6,0.3,1.2,1,1.2h3.2c0.7,0,1.4-0.5,1.5-1.2l1.1-4.7c0.2-0.6,0.8-1.2,1.5-1.2h0.9
		c3.9,0,6.9-0.8,9.2-2.4C46.9,12.7,48,10.6,48,8C48,6.8,47.9,5.9,47.5,5.1 M40.6,11.5c-1,0.7-2.3,1.1-4,1.1h-0.8
		c-0.7,0-1.1-0.5-1-1.2l1-4.1C35.9,6.6,36.6,6,37.2,6h1c1.2,0,2.2,0.2,2.8,0.6C41.6,7,42,7.6,42,8.5C42,9.8,41.5,10.8,40.6,11.5"/>
	<path id="path3013_2_" fill="#FFFFFF" d="M45.9,4c-0.4-0.8-1-1.4-1.8-1.9c-0.8-0.5-1.7-0.8-2.7-1c-1.1-0.2-2.3-0.3-3.8-0.3H31
		c-0.7,0-1.4,0.5-1.6,1.2l-4.5,19.6c-0.2,0.6,0.3,1.2,1,1.2H29c0.7,0,1.4-0.5,1.5-1.2l1.1-4.7c0.2-0.6,0.8-1.2,1.5-1.2H34
		c3.9,0,6.9-0.8,9.2-2.4c2.2-1.6,3.3-3.7,3.3-6.4C46.5,5.8,46.4,4.8,45.9,4 M39.1,10.5c-1,0.7-2.3,1.1-4,1.1h-0.8
		c-0.7,0-1.1-0.5-1-1.2l1-4.1c0.2-0.6,0.9-1.2,1.5-1.2h1c1.2,0,2.2,0.2,2.8,0.6c0.6,0.4,0.9,1,0.9,1.9C40.5,8.7,40,9.8,39.1,10.5"/>
	<path id="path3013_1_" fill="#1C3664" d="M45.1,3.2c-0.4-0.8-1-1.4-1.8-1.9c-0.8-0.5-1.7-0.8-2.7-1c-1.1-0.2-2.3-0.3-3.8-0.3h-6.7
		c-0.7,0-1.4,0.5-1.6,1.2L24,20.8c-0.2,0.6,0.3,1.2,1,1.2h3.2c0.7,0,1.4-0.5,1.5-1.2l1.1-4.7c0.2-0.6,0.8-1.2,1.5-1.2h0.9
		c3.9,0,6.9-0.8,9.2-2.4c2.2-1.6,3.3-3.7,3.3-6.4C45.7,5,45.5,4,45.1,3.2 M38.2,9.6c-1,0.7-2.3,1.1-4,1.1h-0.8c-0.7,0-1.1-0.5-1-1.2
		l1-4.1c0.2-0.6,0.9-1.2,1.5-1.2h1c1.2,0,2.2,0.2,2.8,0.6c0.6,0.4,0.9,1,0.9,1.9C39.7,7.9,39.2,8.9,38.2,9.6"/>
</g>
<g>
	<path id="path3013_6_" fill="#939393" d="M23.5,5.1c-0.4-0.8-1-1.4-1.8-1.9c-0.8-0.5-1.7-0.8-2.7-1s-2.3-0.3-3.8-0.3H8.5
		c-0.7,0-1.4,0.5-1.6,1.2L2.4,22.7c-0.2,0.6,0.3,1.2,1,1.2h3.2c0.7,0,1.4-0.5,1.5-1.2L9.1,18c0.2-0.6,0.8-1.2,1.5-1.2h0.9
		c3.9,0,6.9-0.8,9.2-2.4C22.9,12.7,24,10.6,24,8C24,6.8,23.9,5.9,23.5,5.1 M16.6,11.5c-1,0.7-2.3,1.1-4,1.1h-0.8
		c-0.7,0-1.1-0.5-1-1.2l1-4.1C11.9,6.6,12.6,6,13.2,6h1c1.2,0,2.2,0.2,2.8,0.6C17.6,7,18,7.6,18,8.5C18,9.8,17.5,10.8,16.6,11.5"/>
	<path id="path3013_5_" fill="#FFFFFF" d="M21.9,4c-0.4-0.8-1-1.4-1.8-1.9c-0.8-0.5-1.7-0.8-2.7-1s-2.3-0.3-3.8-0.3H7
		C6.3,0.8,5.6,1.3,5.4,2L0.9,21.7c-0.2,0.6,0.3,1.2,1,1.2H5c0.7,0,1.4-0.5,1.5-1.2l1.1-4.7c0.2-0.6,0.8-1.2,1.5-1.2H10
		c3.9,0,6.9-0.8,9.2-2.4c2.2-1.6,3.3-3.7,3.3-6.4C22.5,5.8,22.4,4.8,21.9,4 M15.1,10.5c-1,0.7-2.3,1.1-4,1.1h-0.8
		c-0.7,0-1.1-0.5-1-1.2l1-4.1c0.2-0.6,0.9-1.2,1.5-1.2h1c1.2,0,2.2,0.2,2.8,0.6c0.6,0.4,0.9,1,0.9,1.9C16.5,8.7,16,9.8,15.1,10.5"/>
	<path id="path3013_4_" fill="#5A5A5A" d="M21.1,3.2c-0.4-0.8-1-1.4-1.8-1.9c-0.8-0.5-1.7-0.8-2.7-1S14.3,0.1,12.8,0H6.1
		C5.4,0,4.7,0.5,4.6,1.2L0,20.8c-0.2,0.6,0.3,1.2,1,1.2h3.2c0.7,0,1.4-0.5,1.5-1.2l1.1-4.7c0.2-0.6,0.8-1.2,1.5-1.2h0.9
		c3.9,0,6.9-0.8,9.2-2.4c2.2-1.6,3.3-3.7,3.3-6.4C21.7,5,21.5,4,21.1,3.2 M14.2,9.6c-1,0.7-2.3,1.1-4,1.1H9.4c-0.7,0-1.1-0.5-1-1.2
		l1-4.1c0.2-0.6,0.9-1.2,1.5-1.2h1c1.2,0,2.2,0.2,2.8,0.6c0.6,0.4,0.9,1,0.9,1.9C15.7,7.9,15.2,8.9,14.2,9.6"/>
</g>
</svg>
